X: 41711
T: Valley Of Knockanure, The
R: waltz
M: 3/4
K: Eminor
GA|B4 B2|A2 B2 A2|G4 E2|A2 G2 E2|D2 B,2 D2|E4 E2|E6-|E4 B2|
E2 D2 E2|G4 A2|B2 A2 B2|d4 B2|A4 A2|G4 A2|B6-|B4 D2|
E2 D2 E2|G4 A2|B2 A2 B2|d4 B2|A2 B2 A2|G4 A2|B6|D4 GA|
B4 B2|A2 B2 A2|G4 E2|A2 G2 E2|D2 B,2 D2|E4 E2|E6-|E4||

